src/assets/take-out-team.svg

<?xml version="1.0" encoding="iso-8859-1"?>
<!-- Generator: Adobe Illustrator 19.0.0, SVG Export Plug-In . SVG Version: 6.00 Build 0)  -->
<svg version="1.1" id="Layer_1" xmlns="http://www.w3.org/2000/svg" xmlns:xlink="http://www.w3.org/1999/xlink" x="0px" y="0px"
	 viewBox="0 0 463 463" style="enable-background:new 0 0 463 463;" xml:space="preserve">
<g>
	<g>
		<path d="M0,80.05v67.5v167.9v67.5h463v-67.5v-167.9v-67.5H0z M239,189.25c20.1,3.6,35.5,21.2,35.5,42.3
			c0,21.2-15.4,38.8-35.5,42.3V189.25z M15,162.55h34.8v137.9H15V162.55z M224,273.85c-20.1-3.6-35.5-21.2-35.5-42.3
			c0-21.2,15.4-38.8,35.5-42.3V273.85z M224,174.05c-28.4,3.7-50.5,28.1-50.5,57.5c0,29.4,22.1,53.8,50.5,57.5v79H15v-52.5h49.8v-51
			c17.8,0,32.4-14.8,32.4-33s-14.5-33-32.4-33v-51H15v-52.5h209V174.05z M64.8,249.55v-36c9.6,0,17.4,8.1,17.4,18
			S74.4,249.55,64.8,249.55z M448,300.55h-34.8v-138H448V300.55z M448,147.55h-49.8v51H397c-17.9,0-32.4,14.8-32.4,33
			s14.5,33,32.4,33h1.2v51H448v52.5H239v-79c28.4-3.7,50.5-28.1,50.5-57.5s-22.1-53.8-50.5-57.5v-79h209V147.55z M398.2,213.55v36
			H397c-9.6,0-17.4-8.1-17.4-18s7.8-18,17.4-18H398.2z"/>
	</g>
</g>
<g>
</g>
<g>
</g>
<g>
</g>
<g>
</g>
<g>
</g>
<g>
</g>
<g>
</g>
<g>
</g>
<g>
</g>
<g>
</g>
<g>
</g>
<g>
</g>
<g>
</g>
<g>
</g>
<g>
</g>
</svg>

<svg xmlns="http://www.w3.org/2000/svg" viewBox="0 0 463 463"><path d="M0 80.05v302.9h463V80.05H0zm239 109.2c20.1 3.6 35.5 21.2 35.5 42.3 0 21.2-15.4 38.8-35.5 42.3v-84.6zm-224-26.7h34.8v137.9H15v-137.9zm209 111.3c-20.1-3.6-35.5-21.2-35.5-42.3 0-21.2 15.4-38.8 35.5-42.3v84.6zm0-99.8c-28.4 3.7-50.5 28.1-50.5 57.5s22.1 53.8 50.5 57.5v79H15v-52.5h49.8v-51c17.8 0 32.4-14.8 32.4-33s-14.5-33-32.4-33v-51H15v-52.5h209v79zm-159.2 75.5v-36c9.6 0 17.4 8.1 17.4 18s-7.8 18-17.4 18zm383.2 51h-34.8v-138H448v138zm0-153h-49.8v51H397c-17.9 0-32.4 14.8-32.4 33s14.5 33 32.4 33h1.2v51H448v52.5H239v-79c28.4-3.7 50.5-28.1 50.5-57.5s-22.1-53.8-50.5-57.5v-79h209v52.5zm-49.8 66v36H397c-9.6 0-17.4-8.1-17.4-18s7.8-18 17.4-18h1.2z"/></svg>
